epam-assets/icon-sources/18/editor-chart-curve.svg

<svg width="18" height="18" viewBox="0 0 18 18" fill="none" xmlns="http://www.w3.org/2000/svg">
<g id="18/editor-chart-curve">
<path id="icon" fill-rule="evenodd" clip-rule="evenodd" d="M7.47 7.7325C8.115 5.325 8.625 3.75 9.75 3.75C10.875 3.75 11.385 5.325 12.03 7.7325C12.75 10.44 13.575 13.5 16.5 13.5V12C14.85 12 14.25 10.155 13.4775 7.35C12.81 4.845 12.1125 2.25 9.75 2.25C7.3875 2.25 6.69 4.845 6.0225 7.35C5.2725 10.155 4.65 12 3 12V2.25H1.5V15.75H16.5V14.25H3V13.5C5.925 13.5 6.75 10.44 7.47 7.7325Z" fill="#6C6F80"/>
</g>
</svg>

<svg xmlns="http://www.w3.org/2000/svg" width="18" height="18" fill="none" viewBox="0 0 18 18">
  <path fill="#6C6F80" fill-rule="evenodd" d="M7.47 7.732C8.115 5.325 8.625 3.75 9.75 3.75c1.125 0 1.635 1.575 2.28 3.982.72 2.708 1.545 5.768 4.47 5.768V12c-1.65 0-2.25-1.845-3.023-4.65-.667-2.505-1.364-5.1-3.727-5.1-2.362 0-3.06 2.595-3.728 5.1C5.272 10.155 4.65 12 3 12V2.25H1.5v13.5h15v-1.5H3v-.75c2.925 0 3.75-3.06 4.47-5.768Z" clip-rule="evenodd"/>
</svg>
